X:1
T:House of Drummuir, The
T:House of Drummuir, The
T:Alexander Walker
C:Alexander Walker
L:1/8
M:2/2
K:D
V:1 treble 
V:1
 c | d2 f>e dABd | AFDF E3 c | d2 fe dABG | FDEC (D2 D) :| g | f>d d/d/d (fd)ad | %7
 g>e e/e/e (ge)be | f>d d/d/d BdAF | GBAc dDDg | f>d d/d/d (fd)ad | g>e e/e/e gebe | faec dfAF | %13
 GBAc dDD || %14

